X:1
T:Title
%%score { ( 1 3 ) | 2 }
L:1/8
Q:1/4=100
M:4/4
K:Ab
V:1 treble nm="Grand Piano"
V:3 treble 
V:2 bass 
V:1
 [Ec]2 [CA]2 [Fd][Fd][FA][FB] | [Ec]4 [CA]4 | B2 E2 FEGA | B6 z2 | [Ec]2 [CA]2 [Fd][Fd][FA][FB] | %5
w: B.~C.~Unseld * * * * *|||||
 z4 e4 | [Fd]2 F2 AGFG | [CA]6 z2 | [EB]4 [Ge]4 | e4 c4 | c3 B [=DB][DF][DF][Dc] | [EB]6 z2 | %12
w: |||||||
 [Ec]2 [CA]2 [Fd][Fd][FA][FB] | z4 e4 | [Fd]2 F2 AGFG | [CA]6 z2 |] %16
w: ||||
V:2
 [A,,A,]2 [A,,A,]2 [A,,A,][A,,A,][A,,A,][A,,A,] | [A,,A,]4 [A,,A,]4 | %2
 [E,G,D]2 [E,G,D]2 [E,G,D][E,G,D][E,B,D][E,A,C] | [E,G,E]6 z2 | %4
 [A,,A,]2 [A,,A,]2 [A,,A,][A,,A,][A,,A,][B,,A,] | [A,,A,]4 [C,A,]4 | %6
 [D,A,]2 [D,A,D]2 [E,A,C][E,A,C][E,B,D][E,B,D] | [A,,A,]6 z2 | [E,G,]4 [E,B,]4 | [A,CA]4 [A,E]4 | %10
 [F,A,=D]3 [F,A,D] [B,,A,][B,,A,][B,,A,][B,,A,] | [E,G,]6 z2 | %12
 [A,,A,]2 [A,,A,]2 [A,,A,][A,,A,][A,,A,][A,,A,] | [A,,A,]4 [C,A,]4 | %14
 [D,A,]2 [D,A,D]2 [E,A,C][E,A,C][E,B,D][E,B,D] | [A,,A,]6 z2 |] %16
V:3
 x8 | x8 | x8 | x8 | x8 | [Ec]4 E2 _G2 | x8 | x8 | x8 | x8 | x8 | x8 | x8 | [Ec]4 E2 _G2 | x8 | %15
 x8 |] %16

